static/assets/images/tokens/mai.svg

<svg width="256" height="256" viewBox="0 0 256 256" fill="none" xmlns="http://www.w3.org/2000/svg">
<path fill-rule="evenodd" clip-rule="evenodd" d="M256 128C256 198.692 198.692 256 128 256C57.3075 256 0 198.692 0 128C0 57.3075 57.3075 0 128 0C198.692 0 256 57.3075 256 128Z" fill="#DB3737"/>
<path d="M191.694 63.8191L191.657 105.675C191.657 105.997 191.815 106.158 192.13 106.158H210.272C210.394 106.158 210.511 106.206 210.597 106.293C210.684 106.38 210.734 106.498 210.736 106.622L210.782 114.945L192.112 115.246C191.785 115.252 191.621 115.416 191.621 115.737V141.182C191.621 141.479 191.769 141.628 192.067 141.628L194.295 141.655L209.981 141.664C210.297 141.664 210.521 141.807 210.654 142.092L211 142.847L210.745 150.27C210.733 150.585 210.57 150.743 210.254 150.743H192.076C191.772 150.743 191.621 150.895 191.621 151.198V193.045C191.621 193.166 191.573 193.281 191.488 193.367C191.402 193.452 191.287 193.5 191.166 193.5H175.843C175.747 193.5 175.654 193.461 175.586 193.391C175.518 193.321 175.479 193.226 175.479 193.127V151.198C175.479 150.895 175.328 150.743 175.025 150.743H151.371C151.227 150.743 151.085 150.788 150.967 150.871C150.848 150.954 150.758 151.071 150.707 151.207L135.384 193.036C135.269 193.345 135.048 193.5 134.72 193.5H121.189C120.873 193.5 120.661 193.351 120.552 193.054L105.211 151.207C105.096 150.898 104.874 150.743 104.547 150.743H80.9027C80.7821 150.743 80.6665 150.791 80.5812 150.876C80.4959 150.962 80.448 151.077 80.448 151.198V192.818C80.448 193.273 80.2207 193.5 79.766 193.5H64.761C64.4579 193.5 64.3063 193.348 64.3063 193.045V151.425C64.3063 151.244 64.2345 151.071 64.1066 150.943C63.9787 150.815 63.8052 150.743 63.6243 150.743H45.8639C45.4517 150.743 45.2364 150.537 45.2183 150.124L45 144.02L45.3092 142.128C45.3577 141.807 45.5456 141.646 45.873 141.646H63.8517C63.9698 141.646 64.0832 141.599 64.1667 141.515C64.2503 141.432 64.2972 141.318 64.2972 141.2L64.27 120.04L64.2336 115.764C64.2336 115.4 64.0517 115.218 63.688 115.218L45.2092 115L45.2183 106.758C45.2206 106.598 45.2849 106.445 45.3972 106.333C45.5095 106.221 45.6608 106.158 45.8184 106.158L62.4876 106.139C62.8453 106.267 63.2818 106.264 63.7971 106.13C64.1305 106.039 64.2972 105.824 64.2972 105.484L64.3427 62.7274L87.0775 62.591C87.4291 62.591 87.6655 62.7578 87.7868 63.0913L103.392 105.703C103.501 106.012 103.719 106.167 104.047 106.167H152.017C152.205 106.167 152.332 106.079 152.399 105.903L168.195 62.9731C168.31 62.6577 168.535 62.5 168.868 62.5H190.948C191.269 62.5 191.481 62.6516 191.585 62.9549C191.675 63.2278 191.712 63.5159 191.694 63.8191ZM88.4961 105.648L80.83 84.5972C80.8114 84.5563 80.7797 84.5229 80.7398 84.5023C80.7 84.4816 80.6544 84.475 80.6104 84.4834C80.5663 84.4918 80.5264 84.5147 80.4969 84.5485C80.4675 84.5824 80.4503 84.6251 80.448 84.6699V105.603C80.448 105.979 80.639 106.167 81.0209 106.167L88.1324 106.158C88.4961 106.158 88.6174 105.988 88.4961 105.648ZM174.924 85.1612L167.486 105.539C167.334 105.957 167.48 106.167 167.922 106.167H174.952C175.328 106.167 175.516 105.979 175.516 105.603L175.416 85.2431C175.41 84.3091 175.246 84.2818 174.924 85.1612ZM81.8121 141.609H98.8632C99.621 141.773 100.397 141.755 101.191 141.555C101.494 141.482 101.594 141.3 101.491 141.009L92.1337 115.546C92.1011 115.463 92.0455 115.392 91.9742 115.342C91.9029 115.292 91.8191 115.264 91.7335 115.264H81.0209C80.639 115.264 80.448 115.452 80.448 115.828V141.2C80.448 141.497 80.5965 141.643 80.8936 141.637L81.8121 141.609ZM108.603 119.812L116.369 141.155C116.484 141.482 116.714 141.646 117.06 141.646H138.658C139.034 141.646 139.286 141.47 139.413 141.118L147.152 120.022L148.652 115.855C148.792 115.461 148.652 115.264 148.234 115.264H107.657C107.178 115.264 107.02 115.488 107.184 115.937L108.603 119.812ZM157.282 141.628L172.76 141.619L175.034 141.628C175.331 141.628 175.479 141.482 175.479 141.191V115.719C175.479 115.416 175.328 115.264 175.025 115.264H164.176C164.086 115.267 164 115.296 163.927 115.348C163.854 115.4 163.798 115.472 163.766 115.555L154.472 140.973C154.333 141.367 154.472 141.57 154.891 141.582L157.282 141.628ZM120.952 153.7L127.609 171.676C127.785 172.143 127.961 172.14 128.136 171.667L134.811 153.427C135.278 152.82 135.542 152.123 135.602 151.334C135.633 150.94 135.451 150.743 135.057 150.743H120.643C120.194 150.743 120.04 150.955 120.179 151.38L120.952 153.7Z" fill="white"/>
</svg>

<svg xmlns="http://www.w3.org/2000/svg" fill="none" viewBox="0 0 256 256"><path fill="#DB3737" fill-rule="evenodd" d="M256 128c0 70.692-57.308 128-128 128S0 198.692 0 128 57.308 0 128 0s128 57.308 128 128" clip-rule="evenodd"/><path fill="#fff" d="m191.694 63.82-.037 41.855q0 .483.473.483h18.142c.122 0 .239.048.325.135a.48.48 0 0 1 .139.329l.046 8.323-18.67.301q-.49.01-.491.491v25.445q0 .446.446.446l2.228.027 15.686.009a.69.69 0 0 1 .673.428l.346.755-.255 7.423q-.017.473-.491.473h-18.178q-.456 0-.455.455v41.847a.457.457 0 0 1-.455.455h-15.323a.36.36 0 0 1-.257-.109.38.38 0 0 1-.107-.264v-41.929q0-.455-.454-.455h-23.654a.71.71 0 0 0-.664.464l-15.323 41.829q-.172.464-.664.464h-13.531q-.474 0-.637-.446l-15.341-41.847q-.173-.464-.664-.464H80.903a.456.456 0 0 0-.455.455v41.62q0 .682-.682.682H64.761q-.455 0-.455-.455v-41.62a.68.68 0 0 0-.682-.682h-17.76q-.618 0-.646-.619L45 144.02l.31-1.892q.072-.482.563-.482h17.979a.444.444 0 0 0 .445-.446l-.027-21.16-.036-4.276q0-.546-.546-.546L45.209 115l.01-8.242a.6.6 0 0 1 .178-.425.6.6 0 0 1 .421-.175l16.67-.019q.536.192 1.31-.009.499-.136.5-.646l.045-42.757 22.734-.136q.527 0 .71.5l15.605 42.612q.163.464.655.464h47.97a.38.38 0 0 0 .382-.264l15.796-42.93q.173-.473.673-.473h22.08q.481 0 .637.455a2.3 2.3 0 0 1 .109.864M88.496 105.647l-7.666-21.05a.2.2 0 0 0-.382.072v20.933q0 .564.573.564l7.111-.009q.546 0 .364-.51m86.428-20.487-7.438 20.378q-.228.628.436.628h7.03q.564 0 .564-.564l-.1-20.36q-.009-1.4-.492-.082m-93.112 56.45h17.051a5.05 5.05 0 0 0 2.328-.054q.454-.11.3-.546l-9.357-25.463a.45.45 0 0 0-.16-.204.42.42 0 0 0-.24-.078H81.02q-.573 0-.573.564V141.2q0 .446.446.437zm26.791-21.797 7.766 21.343q.172.49.691.491h21.598q.564 0 .755-.528l7.739-21.096 1.5-4.167q.21-.591-.418-.591h-40.577q-.719 0-.473.673zm48.679 21.816 15.478-.009 2.274.009q.445 0 .445-.437V115.72q0-.455-.454-.455h-10.849a.45.45 0 0 0-.41.291l-9.294 25.418q-.209.591.419.609zm-36.33 12.072 6.657 17.976q.264.7.527-.009l6.675-18.24a3.83 3.83 0 0 0 .791-2.093q.046-.591-.545-.591h-14.414q-.673 0-.464.637z"/></svg>
